X:1
T:In sweet exalted strains
T:In sweet exalted strains - Shortwood (Thomas Clark)
C:Thomas Clark
Z:Text: Benjamin Francis
%%score [ 1 2 3 4 ]
L:1/8
M:3/4
K:D
V:1 treble nm="Soprano" snm="S."
V:2 treble nm="Alto" snm="A."
V:3 treble-8 transpose=-12 nm="Tenor" snm="T."
V:4 bass nm="Bass" snm="B."
V:1
 A2 | (d2 c2) d2 | (e>f ge) (dc) | d4 F2 | G4 A2 | (B3 c) (de) | (d2 c2) c2 | d4 A2 | (f2 e2) d2 | %9
w: Then,|king _ of|glo- * * * ry, _|come, And|with thy|fa- * vour _|crown _ This|tem- ple|as _ thy|
w: In|sweet _ ex-|alt- * * * ed _|strains The|king of|glo- * ry _|praise; _ O’er|heav’n and|earth _ he|
w: To|earth _ he|bends _ _ _ his _|throne, His|throne of|grace _ di- *|vine; _ Wide|is his|boun- * ty|
 e4 e2 | (e2 d2) c2 | (c>B A2) ^G2 | A4 A2 | (A2 F2) B2 | A4 A2 | (A2 F2) B2 | A4 A2 | d4 (cB) | %18
w: dome, This|peo- * ple|as _ _ thine|own: Be-|neath _ this|roof, O|deign _ to|show, How|God can _|
w: reigns, Through|e- * ver-|las- * * ting|days: He|with _ a|nod the|world _ con-|trols, Sus-|tains or _|
w: known, And|wide _ his|glo- * * ries|shine; Fair|Sa- * lem,|still his|cho- * sen|rest, Is|with his _|
 (A2 G2) F2 | (E2 B2) A2 | (G2 F2) B2 | A4 d2 | E4 F2 | (G2 F2) E2 | D4 |] %25
w: dwell _ with|men _ be-|low, _ how|God can|dwell with|men _ be-|low.|
w: sinks _ the|dis- * tant|poles, _ sus-|tains or|sinks the|dis- * tant|poles.|
w: smiles _ and|pre- * sence|blest, _ is|with his|smiles and|pre- * sence|blest.|
V:2
 F2 | (F2 E2) D2 | (G>A BG) (FE) | F4 D2 | D4 D2 | (D3 E) (DG) | (F2 E2) E2 | D4 F2 | A4 ^G2 | %9
w: Then,|king _ of|glo- * * * ry, _|come, And|with thy|fa- * vour _|crown _ This|tem- ple|as thy|
w: In|sweet _ ex-|alt- * * * ed _|strains The|king of|glo- * ry _|praise; _ O’er|heav’n and|earth he|
w: To|earth _ he|bends _ _ _ his _|throne, His|throne of|grace _ di- *|vine; _ Wide|is his|boun- ty|
 A4 A2 | E4 E2 | E4 D2 | C4 F2 | (F2 D2) G2 | F4 F2 | (F2 D2) G2 | F4 F2 | F4 D2 | (D2 C2) D2 | %19
w: dome, This|peo- ple|as thine|own: Be-|neath _ this|roof, O|deign _ to|show, How|God can|dwell _ with|
w: reigns, Through|e- ver-|las- ting|days: He|with _ a|nod the|world _ con-|trols, Sus-|tains or|sinks _ the|
w: known, And|wide his|glo- ries|shine; Fair|Sa- * lem,|still his|cho- * sen|rest, Is|with his|smiles _ and|
 D4 (CE) | (E2 D2) D2 | D4 F2 | C4 D2 | D4 C2 | D4 |] %25
w: men be- *|low, _ how|God can|dwell with|men be-|low.|
w: dis- tant _|poles, _ sus-|tains or|sinks the|dis- tant|poles.|
w: pre- sence _|blest, _ is|with his|smiles and|pre- sence|blest.|
V:3
 d2 | A4 A2 | B4 A2 | A4 A2 | G4 F2 | G4 (AB) | A4 A2 | A4 d2 | (d2 e2) B2 | c4 c2 | B4 A2 | %11
w: Then,|king of|glo- ry,|come, And|with thy|fa- vour _|crown This|tem- ple|as _ thy|dome, This|peo- ple|
w: In|sweet ex-|alt- ed|strains The|king of|glo- ry _|praise; O’er|heav’n and|earth _ he|reigns, Through|e- ver-|
w: To|earth he|bends his|throne, His|throne of|grace di- *|vine; Wide|is his|boun- * ty|known, And|wide his|
 (A>B c2) B2 | A4 d2 | d4 d2 | d4 d2 | d4 d2 | d4 d2 | A4 G2 | A4 A2 | B4 c2 | A4 G2 | A4 A2 | %22
w: as _ _ thine|own: Be-|neath this|roof, O|deign to|show, How|God can|dwell with|men be-|low, how|God can|
w: las- * * ting|days: He|with a|nod the|world con-|trols, Sus-|tains or|sinks the|dis- tant|poles, sus-|tains or|
w: glo- * * ries|shine; Fair|Sa- lem,|still his|cho- sen|rest, Is|with his|smiles and|pre- sence|blest, is|with his|
 A4 A2 | (B2 A2) G2 | F4 |] %25
w: dwell with|men _ be-|low.|
w: sinks the|dis- * tant|poles.|
w: smiles and|pre- * sence|blest.|
V:4
 D,2 | (D,2"^64" E,2)"^6" F,2 |"^6" G,4"^64""^53" A,2 | D,4"^42" =C,2 |"^6" (B,,2 B,2)"^64" A,2 | %5
w: Then,|king _ of|glo- ry,|come, And|with _ thy|
w: In|sweet _ ex-|alt- ed|strains The|king _ of|
w: To|earth _ he|bends his|throne, His|throne _ of|
 (G,3"^6" E,)"^6" (F,"^6"G,) |"^64""^53" A,4"^42" G,2 |"^6" F,4 D,2 | (D2"^6" C2)"^´" B,2 | %9
w: fa- * vour _|crown This|tem- ple|as _ thy|
w: glo- * ry _|praise; O’er|heav’n and|earth _ he|
w: grace _ di- *|vine; Wide|is his|boun- * ty|
 A,4 A,2 |"^6" ^G,4 A,2 |"^64" E,4"^7#" E,2 | A,,4 D,2 | D,4"^64" D,2 | D,4 D,2 | D,4"^64" D,2 | %16
w: dome, This|peo- ple|as thine|own: Be-|neath this|roof, O|deign to|
w: reigns, Through|e- ver-|las- ting|days: He|with a|nod the|world con-|
w: known, And|wide his|glo- ries|shine; Fair|Sa- lem,|still his|cho- sen|
"^Notes:Thomas Clark’s The Congregational Harmonist, or Clerk’s Companion was published in 32 numbered parts (eachconsisting of 18 pages), grouped into four books (eight parts per book). The pages are consecutively paginatedthroughout the work as a whole. This setting appears in part no. 26.Volume 3 of The Congregational Harmonist (consisting of numbers 17-24) was advertised on p12 of No. 1 of The Musical World, on 18 March 1836. No. 28 of The Congregational Harmonist was advertised on p128 ofNo. 48, Vol. 4, of The Musical World, on 10 February 1837. Bearing these dates in mind, it seems likely thatno. 26 of The Congregational Harmonist was published during 1836.This setting is attributed ‘T. Clark’ in The Congregational Harmonist, where it is marked with a crossed circle, a symbolused in that book to indicate ‘originals’ (i.e. tunes not previously published).The tune is referred to in a note on p451 of The Congregational Harmonist, associated with the tune ‘Ticmore-End’ (asetting of ‘O let my transported soul’), which reads, ‘This Tune, with FRANCIS, SHORTWOOD, NAILSWORTH & ULEY,was Composed, and inserted in this work, at the particular request of Mr. B. F. Flint, the Hymns having been written byhis Maternal Grandfather, the late Revd. B. Francis, who was upwards of 40 years Pastor of the Baptist Church, atShortwood near Horsley, Gloucestershire’.A tune ‘Snowdonia’ (a setting of ‘Come, my fond, fluttering heart’) is printed on p559 of The Congregational Harmonist,with the attribution ‘Melody by Mr. B. F. Flint. Harmonised by T. Clark’: Thomas Clark and Benjamin Francis Flint alsocollaborated in assisting Alexander Hume as editors of British Psalmody, Edinburgh: [1844].The order of parts in the source is Alto - Tenor - Air - Bass, with the Alto and Tenor parts given in the treble clef anoctave above sounding pitch.Only the first verse of the text is given in the source: subsequent verses have here been added editorially.A note appended to this text in John Rippon’s A Selection of Hymns, from the Best Authors notes that it was‘Sung on opening the Meeting House at Horsley, Gloucestershire, September 18, 1774; and also, at the opening of theNew Meeting House, at Downend, near Bristol, October 4, 1786.’""^Here may th’attentive throngImbibe thy truth and love,And converts join the songOf seraphim above,And willing crowds surround thy boardWith sacred joy and sweet accord." D,4 D,2 | %17
w: show, How|
w: trols, Sus-|
w: rest, Is|
 D,4 G,2 |"^6" (F,2"^43" E,2) D,2 |"^65" G,,4 A,,2 | %20
w: God can|dwell _ with|men be-|
w: tains or|sinks _ the|dis- tant|
w: with his|smiles _ and|pre- sence|
"^94""^Here may our unborn sonsAnd daughters sound thy praise,And shine like polish’d stones,Through long succeeding days;Here, Lord, display thy saving pow’r,While temples stand and men adore.""^83" D,4 G,2 | %21
w: low, how|
w: poles, sus-|
w: blest, is|
"^6" F,4 D,2 | (A,2"^42" G,2)"^6" F,2 |"^7" (E,2"^64" A,2)"^73" A,,2 | D,4 |] %25
w: God can|dwell _ with|men _ be-|low.|
w: tains or|sinks _ the|dis- * tant|poles.|
w: with his|smiles _ and|pre- * sence|blest.|

